X: 186
T: No_9_Song_of_the_Za'gimag'.krn
N: Derived from No_9_Song_of_the_Za'gimag'.krn
%%abc-version 2.0
%%abcx-abcm2ps-target-version 5.9.1 (29 Sep 2008)
%%abc-creator hum2abc beta
%%abcx-conversion-date 2019/03/15 08:29:13
%%humdrum-veritas 1696248670
%%humdrum-veritas-data 1930400131
%%linebreak <none>
%%barnumbers 0
L: 1/4
M: 2/4
%%staves {1 2}
V: 1 clef=bass
V: 2 clef=bass
K: G
[V:1] [K:clef=bass][M:2/4]D2 ||  
[V:2] [K:clef=bass][M:2/4]G,,/G,,/ G,,/G,,/ ||  
[V:1] [M:3/4]DB,A, | 
[V:2] [M:3/4]G,,/G,,/ G,,/G,,/ G,,/G,,/ | 
[V:1] A,3/A,/ A,3//B,// | 
[V:2] z3 | 
[V:1] B,3/B,/ (B,3//D//) | 
[V:2] z3 | 
[V:1] DDB, | 
[V:2] z3 | 
[V:1] A,3/A,/ (3A,/A,/A,/ | 
[V:2] z3 | 
[V:1] A,3/A,/ A,3//A,// | 
[V:2] z3 | 
[V:1] G,3/G,/G, ||  
[V:2] z3 ||  
[V:1] [M:4/4]A,A,A,A, ||  
[V:2] [M:4/4]z4 ||  
[V:1] [M:3/4]G,3/G,/ G,3//G,// ]|:  
[V:2] [M:3/4]z3 ]|:  
[V:1] G,3/G,/G, ||  
[V:2] z3 ||  
[V:1] [M:4/4]G,E,E,E, ||  
[V:2] [M:4/4]z4 ||  
[V:1] [M:3/4]D,3/D,/ D,3//D,// | 
[V:2] [M:3/4]z3 | 
[V:1] E,3/E,/E, | 
[V:2] z3 | 
[V:1] E,E,E, | 
[V:2] z3 | 
[V:1] D,3/D,/ D,3//D,// | 
[V:2] z3 | 
[V:1] D,3/D,/D, ||  
[V:2] z3 ||  
[V:1] [M:4/4]B,,B,,B,,G,, ||  
[V:2] [M:4/4]z4 ||  
[V:1] [M:3/4]G,,3/G,,/G,, | 
[V:2] [M:3/4]z3 | 
[V:1] [M:2/4]DD ||  
[V:2] [M:2/4]z2 ||  
[V:1] [M:3/4]B,B,B, | 
[V:2] [M:3/4]z3 | 
[V:1] A,3/A,/A, ||  
[V:2] z3 ||  
[V:1] [M:2/4]B,B, ||  
[V:2] [M:2/4]z2 ||  
[V:1] [M:3/4]B,B,B, | 
[V:2] [M:3/4]z3 | 
[V:1] A,3/A,/ (3A,/A,/A,/ | 
[V:2] z3 | 
[V:1] G,3/G,/G, ||  
[V:2] z3 ||  
[V:1] [M:4/4]A,A,A,A, ||  
[V:2] [M:4/4]z4 ||  
[V:1] [M:3/4]G,3/G,/ G,3//G,// :|]  
[V:2] [M:3/4]z3 :|]  
